actions/16/package-installed-updated.svg

<svg xmlns="http://www.w3.org/2000/svg" viewBox="0 0 16 16">
  <defs id="defs3051">
    <style type="text/css" id="current-color-scheme">
      .ColorScheme-Text {
        color:#808080;
      }
      </style>
  </defs>
  <g transform="translate(-421.71-531.79)">
 <path style="fill:currentColor;fill-opacity:1;stroke:none" 
     d="m426.71429 533.79074a1 1 0 0 0 -1 1v2h-2v4h1v-3h10v7h-5v1h6v-9h-2v-2a1 1 0 0 0 -1 -1zm0 1h6v2h-6z"
     class="ColorScheme-Text"
     />
  <path d="m429.05 540.79l-3.148 3.609-1.524-1.552-.663.675 2.227 2.268 3.773-4.323z" style="shape-rendering:auto;color-interpolation-filters:linearRGB;fill:#1d99f3;image-rendering:auto;color:#808080;fill-rule:evenodd;color-rendering:auto;color-interpolation:sRGB"/>
</g>
</svg>

<svg xmlns="http://www.w3.org/2000/svg" version="1.1" viewBox="0 0 16 16">
 <defs>
  <style id="current-color-scheme" type="text/css">
   .ColorScheme-Text { color:#808080; }
  </style>
 </defs>
 <g transform="translate(-421.71,-531.79)">
  <path class="ColorScheme-Text" d="M 426.71,533.79 A 1,1 0 0 0 425.71,534.79 V 536.79 H 423.71 V 540.79 H 424.71 V 537.79 H 434.71 V 544.79 H 429.71 V 545.79 H 435.71 V 536.79 H 433.71 V 534.79 A 1,1 0 0 0 432.71,533.79 Z M 426.71,534.79 H 432.71 V 536.79 H 426.71 Z" style="color:#808080;fill:currentColor"/>
  <path d="M 429.05,540.79 425.9,544.4 424.38,542.85 423.71,543.52 425.94,545.79 429.71,541.47 Z" style="fill:#1d99f3;fill-rule:evenodd"/>
 </g>
</svg>
